src/assets/images/routing-DFYN.svg

<svg width="63" height="22" viewBox="0 0 63 22" fill="none" xmlns="http://www.w3.org/2000/svg">
<g opacity="0.6" clip-path="url(#clip0_2425_44619)">
<path d="M23.551 3.23047H27.3876C29.9591 3.23047 31.5509 3.92408 32.5509 4.9244C33.5305 5.90391 33.9793 7.18932 33.9793 8.78101C33.9845 9.74867 33.796 10.7076 33.4249 11.6013C33.0537 12.4949 32.5074 13.3053 31.8181 13.9846C30.2263 15.5763 27.9612 16.4128 24.8997 16.4128H20L23.551 3.23047ZM25.2451 13.8212C26.8695 13.8859 28.4538 13.3065 29.6532 12.2092C30.0827 11.7738 30.4212 11.2572 30.649 10.6896C30.8768 10.122 30.9893 9.51471 30.9798 8.90322C30.9973 8.51883 30.9377 8.13483 30.8045 7.77382C30.6713 7.4128 30.4672 7.08212 30.2043 6.80116C29.6124 6.20937 28.6532 5.84198 27.1636 5.84198H25.7555L23.6126 13.8004H25.2451V13.8212Z" fill="white"/>
<path d="M36.4698 8.78027H35.2645L35.9174 6.33165H37.1011L37.2237 5.78057C37.8156 3.53642 39.2033 2.53611 41.3055 2.53611C41.9698 2.5244 42.6315 2.62083 43.2648 2.82161L42.6526 5.19044C42.2539 5.03855 41.8322 4.95574 41.4057 4.94565C41.0761 4.92218 40.7496 5.02194 40.4894 5.22558C40.2292 5.42921 40.0539 5.72227 39.9976 6.04781L39.9145 6.33332H42.3429L41.69 8.78193H39.321L37.2395 16.4345H34.3879L36.4698 8.78027Z" fill="white"/>
<path d="M40.4895 18.8012L42.0202 16.72C42.3409 16.9559 42.7247 17.0909 43.1224 17.1077C43.3439 17.1123 43.5626 17.0581 43.7563 16.9506C43.9499 16.843 44.1115 16.686 44.2246 16.4956L42.9778 6.31377H45.8963L46.3655 13.1709L50.1631 6.3125H53.2446L46.9794 16.6606C45.6527 18.7215 44.5306 19.497 42.8161 19.497C41.9829 19.5454 41.1593 19.2991 40.4895 18.8012Z" fill="white"/>
<path d="M54.5514 6.33213H57.4084L57.2245 6.98498C57.9389 6.35246 58.7352 6.14844 59.8776 6.14844C61.6937 6.14844 62.8572 7.25054 62.8572 9.08703C62.8258 9.7389 62.7091 10.3838 62.51 11.0054L61.0612 16.4333H58.2042L59.6942 10.8827C59.7727 10.5897 59.8139 10.288 59.8168 9.98467C59.8168 9.16846 59.3064 8.73792 58.4292 8.73792C57.3069 8.73792 56.572 9.55413 56.2454 10.7581L54.7147 16.4313H51.8572L54.5514 6.33213Z" fill="white"/>
<path d="M6.3469 14.1673L6.69394 12.8C6.69394 12.7585 6.6736 12.7169 6.63285 12.7169H0.0610965C0.0195346 12.7169 0 12.6753 0 12.6338L3.38771 0.0415586C3.38771 0.021195 3.42927 0 3.44881 0H7.10168C9.57086 0 11.1219 0.673249 12.0812 1.63242C12.5527 2.1248 12.9189 2.70806 13.1574 3.34662C13.396 3.98517 13.502 4.66564 13.469 5.34649C13.4714 6.10973 13.3473 6.86807 13.1015 7.59064C12.9004 8.2107 12.6045 8.79588 12.2242 9.3253C12.2038 9.36685 12.2242 9.42756 12.2657 9.42756H17.1235C17.1359 9.42619 17.1484 9.42889 17.1592 9.4353C17.1699 9.44167 17.1782 9.45138 17.1829 9.46294C17.1877 9.4745 17.1884 9.48729 17.1852 9.49934C17.182 9.5114 17.1749 9.52208 17.1651 9.52977L4.44712 21.9832C4.43731 21.9924 4.42477 21.9982 4.41138 21.9997C4.398 22.0011 4.38451 21.9981 4.37295 21.9912C4.36139 21.9843 4.3524 21.9738 4.34734 21.9614C4.34227 21.9489 4.34141 21.9351 4.34488 21.9221L6.3469 14.1673Z" fill="url(#paint0_radial_2425_44619)"/>
</g>
<defs>
<radialGradient id="paint0_radial_2425_44619" cx="0" cy="0" r="1" gradientUnits="userSpaceOnUse" gradientTransform="translate(6.21467 14.366) scale(17.7096 17.71)">
<stop stop-color="white"/>
<stop offset="0.469" stop-color="#D5D5D5"/>
<stop offset="0.917" stop-color="#DFDFDF"/>
</radialGradient>
<clipPath id="clip0_2425_44619">
<rect width="62.8571" height="22" fill="white"/>
</clipPath>
</defs>
</svg>

<svg xmlns="http://www.w3.org/2000/svg" width="63" height="22" fill="none">
  <g clip-path="url(#a)" opacity=".6">
    <path fill="#fff"
      d="M23.551 3.23h3.837c2.571 0 4.163.694 5.163 1.694.98.98 1.428 2.265 1.428 3.857a7.253 7.253 0 0 1-2.16 5.204c-1.593 1.591-3.858 2.428-6.92 2.428H20L23.551 3.23Zm1.694 10.591a6.167 6.167 0 0 0 4.408-1.612 4.608 4.608 0 0 0 1.327-3.306 2.884 2.884 0 0 0-.776-2.102c-.592-.592-1.55-.959-3.04-.959h-1.409L23.614 13.8h1.632v.021ZM36.47 8.78h-1.206l.653-2.448h1.184l.123-.551c.592-2.245 1.98-3.245 4.082-3.245a6.126 6.126 0 0 1 1.959.286l-.612 2.368a3.752 3.752 0 0 0-1.247-.244 1.333 1.333 0 0 0-1.408 1.102l-.084.285h2.429l-.653 2.449h-2.369l-2.081 7.652h-2.852L36.47 8.78ZM40.49 18.801l1.53-2.081c.32.236.705.37 1.102.388a1.253 1.253 0 0 0 1.103-.612L42.978 6.314h2.918l.47 6.857 3.797-6.858h3.082L46.979 16.66c-1.326 2.06-2.448 2.836-4.163 2.836a3.554 3.554 0 0 1-2.327-.696ZM54.551 6.332h2.857l-.184.653c.715-.633 1.511-.837 2.654-.837 1.816 0 2.98 1.103 2.98 2.939a7.466 7.466 0 0 1-.348 1.918l-1.449 5.428h-2.857l1.49-5.55c.079-.293.12-.595.123-.898 0-.817-.51-1.247-1.388-1.247-1.122 0-1.857.816-2.184 2.02l-1.53 5.673h-2.858l2.694-10.099Z" />
    <path fill="url(#b)"
      d="m6.347 14.167.347-1.367c0-.042-.02-.083-.061-.083H.06c-.041 0-.061-.042-.061-.083L3.388.042c0-.02.041-.042.06-.042h3.654c2.469 0 4.02.673 4.98 1.632a5.016 5.016 0 0 1 1.387 3.714 6.9 6.9 0 0 1-.367 2.245 6.31 6.31 0 0 1-.878 1.734c-.02.042 0 .103.042.103h4.857a.057.057 0 0 1 .042.102L4.447 21.983a.062.062 0 0 1-.1-.022.062.062 0 0 1-.002-.039l2.002-7.755Z" />
  </g>
  <defs>
    <radialGradient id="b" cx="0" cy="0" r="1" gradientTransform="matrix(17.7096 0 0 17.71 6.215 14.366)"
      gradientUnits="userSpaceOnUse">
      <stop stop-color="#fff" />
      <stop offset=".469" stop-color="#D5D5D5" />
      <stop offset=".917" stop-color="#DFDFDF" />
    </radialGradient>
    <clipPath id="a">
      <path fill="#fff" d="M0 0h62.857v22H0z" />
    </clipPath>
  </defs>
</svg>
